X: 37
T: Polska efter Petter Dufva 
T: (Ma6 37)
S: efter Petter Dufva
R: Slängpolska
N: En not jag fått ifrån Växjö Spelmanslag med en lite annorlunda andra repris. 
B: Petter Dufvas notbok 1807
O: Småland
Z: Nils L, 2008-12-25
M: 3/4
L: 1/8
K: D
|: dc df A2 | GF EG FD | dc df A2 |1 GF/E/ F2 D2 :|2 G/F/E F2 D2 |]
|: fd df fd | ge eg ee | fd df dd | ge eg ee |
fa gf ed | ed/c/ d2 D2 :|

